!!!COM: Palestrina, Giovanni Perluigi da
!!!OPR: Veni creator Spiritus
!!!OTL: Benedictus
**kern	**kern	**kern	**kern
*Itenor	*Icalto	*Icant	*Icant
!Tenor	!Altus	!Cantus 2	!Cantus 1
*clefGv2	*clefG2	*clefG2	*clefG2
*k[]	*k[]	*k[]	*k[]
*G:mix	*G:mix	*G:mix	*G:mix
*M4/2	*M4/2	*M4/2	*M4/2
=1	=1	=1	=1
0r	1r	0dd	0r
.	[1g	.	.
=2	=2	=2	=2
0r	1g]	1ee	0r
.	1a	1cc	.
=3	=3	=3	=3
0r	1f	1dd	0r
.	1g	2r	.
.	.	2dd	.
=4	=4	=4	=4
0r	2r	4ee	0r
.	.	4ff	.
.	2g	4gg	.
.	.	4ee	.
.	4a	2.ff	.
.	4g	.	.
.	4f	.	.
.	4g	4ee	.
=5	=5	=5	=5
0r	4a	4cc	0r
.	4b	4dd	.
.	4cc	4ee	.
.	4a	4ff	.
.	2b	2gg	.
.	[2cc	2ee	.
=6	=6	=6	=6
0r	2cc]	[0dd	0g
.	4b	.	.
.	4a	.	.
.	2b	.	.
.	[2g	.	.
=7	=7	=7	=7
0d	2g]	1dd]	0a
.	4f#	.	.
.	4e	.	.
.	1f#	1dd	.
=8	=8	=8	=8
1e	2g	1b	0g
.	2b	.	.
1c	1cc	1ee	.
=9	=9	=9	=9
1d	1a	2.dd	0f#
.	.	8cc	.
.	.	8b	.
2r	1d	2a	.
2d	.	2dd	.
=10	=10	=10	=10
4e	0r	2b	0g
4d	.	.	.
4c	.	2.ee	.
4d	.	.	.
4e	.	.	.
4f#	.	4dd	.
4g	.	4b	.
4e	.	4cc	.
=11	=11	=11	=11
2f#	0d	0dd	0a
1g	.	.	.
2f#	.	.	.
=12	=12	=12	=12
2g	1e	2b	0g
1c	.	2.cc	.
.	2c	.	.
.	.	8b	.
.	.	8a	.
2B	2d	2g	.
=13	=13	=13	=13
2.A	2e	1a	0cc
.	4c	.	.
4B	4d	.	.
4c	4e	1g	.
4d	4f	.	.
2e	4g	.	.
.	4e	.	.
=14	=14	=14	=14
2d	2f	2a	0dd
2G	2.g	1b-	.
1B-	.	.	.
.	4f	.	.
.	[2f	2a	.
=15	=15	=15	=15
1c	2f]	1g	0cc
.	2e	.	.
[1F	1f	2a	.
.	.	4r	.
.	.	4cc	.
=16	=16	=16	=16
0F]	2r	2cc	0r
.	2cc	2cc	.
.	2cc	2.f	.
.	2cc	.	.
.	.	4g	.
=17	=17	=17	=17
0r	2.f	4a	0r
.	.	4b	.
.	.	2.cc	.
.	4g	.	.
.	4a	.	.
.	4b	4dd	.
.	4cc	4ee	.
.	4a	4ff	.
=18	=18	=18	=18
0r	2b	2.gg	0r
.	1cc	.	.
.	.	4ff	.
.	.	2ee	.
.	2b	2dd	.
=19	=19	=19	=19
0r	2.a	2ee	0cc
.	.	2ee	.
.	4g	.	.
.	4f	2.a	.
.	4e	.	.
.	[2f	.	.
.	.	4b	.
=20	=20	=20	=20
1c	2f]	1cc	0g
.	4e	.	.
.	4d	.	.
2c	1e	2r	.
2c	.	2cc	.
=21	=21	=21	=21
2.F	2r	2cc	0a
.	2cc	2ff	.
4G	.	.	.
4A	2cc	2ee	.
4B	.	.	.
4c	2cc	[2ee	.
4d	.	.	.
=22	=22	=22	=22
2e	2g	4ee]	0cc
.	.	4dd	.
1f	2a	4cc	.
.	.	4b	.
.	2f	2a	.
2e	[2g	2g	.
=23	=23	=23	=23
1d	4g]	1a	0dd
.	8f#	.	.
.	8e	.	.
.	2f#	.	.
1r	2g	1b-	.
.	2d	.	.
=24	=24	=24	=24
2r	2.f	1a	0cc
2f	.	.	.
.	4g	.	.
2f	1a	2r	.
2f	.	2a	.
=25	=25	=25	=25
1B-	2r	2b-	0dd
.	2f	2b-	.
2d	2f	2.a	.
2d	2f	.	.
.	.	8g	.
.	.	8f	.
=26	=26	=26	=26
1c	2g	2e	1.ee
.	1a	1cc	.
1r	.	.	.
.	[2g	2b	2ee
=27	=27	=27	=27
1d	2g]	1a	0dd
.	4f#	.	.
.	4e	.	.
2d	2f#	2r	.
2d	2f#	2dd	.
=28	=28	=28	=28
2.G	1g	2dd	0r
.	.	2dd	.
4A	.	.	.
2B	2r	2.g	.
2c	2g	.	.
.	.	4a	.
=29	=29	=29	=29
2G	2g	4b	0r
.	.	4cc	.
2B	2g	4dd	.
.	.	4b	.
2.A	2.c	4cc	.
.	.	4dd	.
.	.	[2ee	.
4B	4d	.	.
=30	=30	=30	=30
1c	4e	4ee]	0r
.	4f	4dd	.
.	4g	4ee	.
.	4a	4cc	.
1r	2b	2dd	.
.	4cc	[2ee	.
.	4b	.	.
=31	=31	=31	=31
0r	4a	2ee]	0cc
.	4g	.	.
.	4f	2ff	.
.	4g	.	.
.	4a	2.ee	.
.	4b	.	.
.	[2cc	.	.
.	.	4ff	.
=32	=32	=32	=32
1g	2cc]	1gg	0dd
.	4b	.	.
.	4a	.	.
2g	2b	2r	.
2g	2b	2gg	.
=33	=33	=33	=33
2c	2cc	2gg	0ee
4r	2g	2gg	.
4c	.	.	.
2c	2g	2.cc	.
2c	2e	.	.
.	.	4b	.
=34	=34	=34	=34
4F	2f	4a	0cc
4G	.	4b	.
4A	2.e	4cc	.
4B	.	4dd	.
4c	.	[1ee	.
4d	4d	.	.
4e	4c	.	.
4f	4d	.	.
=35	=35	=35	=35
2g	4e	2ee]	0b
.	4f	.	.
2.G	2g	4dd	.
.	.	4cc	.
.	2d	1dd	.
4A	.	.	.
4B	[2g	.	.
4c	.	.	.
=36	=36	=36	=36
1.d	2g]	1.dd	0a
.	4f#	.	.
.	4e	.	.
.	2f#	.	.
2d	2f#	2dd	.
=37	=37	=37	=37
0G	0g	0b	0dd
*-	*-	*-	*-
!! B.Hosanna
**kern	**kern	**kern	**kern	**kern	**kern
*Ibass	*Itenor	*Itenor	*Icalto	*Icant	*Icant
!Bassus	!Tenor 2	!Tenor 1	!Altus	!Cantus 2	!Cantus 1
*clefF4	*clefGv2	*clefGv2	*clefG2	*clefG2	*clefG2
*k[]	*k[]	*k[]	*k[]	*k[]	*k[]
*G:mix	*G:mix	*G:mix	*G:mix	*G:mix	*G:mix
*M4/2	*M4/2	*M4/2	*M4/2	*M4/2	*M4/2
=38	=38	=38	=38	=38	=38
0G	1r	0r	0d	0b	0g
.	[1d	.	.	.	.
=39	=39	=39	=39	=39	=39
1D	1d]	0r	1f	1dd	0a
1F	1A	.	1f	1cc	.
=40	=40	=40	=40	=40	=40
1C	1c	0r	1e	1cc	0g
1E	1G	.	1e	1b	.
=41	=41	=41	=41	=41	=41
2.D	2A	0r	0a	2.dd	0f
.	2d	.	.	.	.
4E	.	.	.	4cc	.
4F	1c	.	.	4a	.
4G	.	.	.	4b	.
2A	.	.	.	[2cc	.
=42	=42	=42	=42	=42	=42
0G	2r	1r	0d	2cc]	0g
.	1g	.	.	4b	.
.	.	.	.	4a	.
.	.	[1d	.	2.b	.
.	2d	.	.	.	.
.	.	.	.	4cc	.
=43	=43	=43	=43	=43	=43
0r	1f	1d]	1r	1dd	0a
.	2.c	1A	[1cc	[1ee	.
.	4d	.	.	.	.
=44	=44	=44	=44	=44	=44
0r	2.e	1c	1cc]	1ee]	0g
.	4f	.	.	.	.
.	2g	1G	1b	1dd	.
.	2d	.	.	.	.
=45	=45	=45	=45	=45	=45
0r	2f	2.A	1a	0r	0cc
.	4e	.	.	.	.
.	4d	4B	.	.	.
.	4e	4c	2g	.	.
.	4f	4d	.	.	.
.	[2g	2e	2g	.	.
=46	=46	=46	=46	=46	=46
0r	2g]	1d	1a	1a	0dd
.	2f#	.	.	.	.
.	1g	2G	1g	1b	.
.	.	2g	.	.	.
=47	=47	=47	=47	=47	=47
0c	1r	2e	1.g	4cc	0cc
.	.	.	.	4dd	.
.	.	2c	.	4ee	.
.	.	.	.	4ff	.
.	2r	1e	.	[1gg	.
.	[2g	.	2g	.	.
=48	=48	=48	=48	=48	=48
1G	2g]	1g	0b-	1gg]	0r
.	1d	.	.	.	.
1B-	.	1f	.	1dd	.
.	[2f	.	.	.	.
=49	=49	=49	=49	=49	=49
1F	2f]	2.f	0a	1ff	0cc
.	1c	.	.	.	.
.	.	8e	.	.	.
.	.	8d	.	.	.
1A	.	1c	.	2ee	.
.	[2f	.	.	2cc	.
=50	=50	=50	=50	=50	=50
0c	2f]	0r	1r	0cc	0g
.	4e	.	.	.	.
.	4d	.	.	.	.
.	4e	.	[1cc	.	.
.	4d	.	.	.	.
.	4c	.	.	.	.
.	4B	.	.	.	.
=51	=51	=51	=51	=51	=51
0F	2A	0f	1cc]	2r	0a
.	2.a	.	.	2ff	.
.	.	.	1a	1cc	.
.	4g	.	.	.	.
.	2f	.	.	.	.
=52	=52	=52	=52	=52	=52
0r	1e	1c	1g	1.ee	0cc
.	1c	1e	2g	.	.
.	.	.	2g	[2gg	.
=53	=53	=53	=53	=53	=53
1r	2r	1d	1a	2gg]	0dd
.	1d	.	.	2ff#	.
1G	.	1B	1g	1gg	.
.	[2G	.	.	.	.
=54	=54	=54	=54	=54	=54
1C	2G]	1c	1g	1ee	0cc
.	1c	.	.	.	.
1F	.	1A	1a	2.ff	.
.	[2A	.	.	.	.
.	.	.	.	4ee	.
=55	=55	=55	=55	=55	=55
1D	2A]	2.d	1a	4ff	0dd
.	.	.	.	4ee	.
.	1d	.	.	4dd	.
.	.	4A	.	4cc	.
1G	.	2B	1g	1dd	.
.	2B	2G	.	.	.
=56	=56	=56	=56	=56	=56
0C	1.c	1g	2e	1cc	0ee
.	.	.	4c	.	.
.	.	.	4d	.	.
.	.	1G	4e	1r	.
.	.	.	4f	.	.
.	2B	.	[2g	.	.
=57	=57	=57	=57	=57	=57
0D	0A	1d	2g]	2r	0dd
.	.	.	4f#	2a	.
.	.	.	4e	.	.
.	.	2r	1f#	2a	.
.	.	[2d	.	2a	.
=58	=58	=58	=58	=58	=58
1G	1G	2d]	0g	2b	0r
.	.	2d	.	2g	.
2G	1r	2d	.	1b	.
2G	.	[2e	.	.	.
=59	=59	=59	=59	=59	=59
2A	0r	2e]	0c	1.a	0cc
2F	.	2f	.	.	.
1A	.	2e	.	.	.
.	.	2c	.	[2cc	.
=60	=60	=60	=60	=60	=60
0G	2r	2.g	0r	2cc]	0dd
.	2g	.	.	4b	.
.	.	8f	.	4a	.
.	.	8e	.	.	.
.	2g	1d	.	1b	.
.	2g	.	.	.	.
=61	=61	=61	=61	=61	=61
1C	2e	0c	1g	0cc	0ee
.	2c	.	.	.	.
1C	1e	.	2g	.	.
.	.	.	2g	.	.
=62	=62	=62	=62	=62	=62
0F	1.f	2r	2a	0r	0cc
.	.	2A	2f	.	.
.	.	2A	1a	.	.
.	2e	2A	.	.	.
=63	=63	=63	=63	=63	=63
1G	2d	2.B	1g	2r	0b
.	2G	.	.	2gg	.
.	.	4c	.	.	.
1r	2G	2d	2.g	4gg	.
.	.	.	.	4ff	.
.	2G	[2e	.	4ee	.
.	.	.	4f	4dd	.
=64	=64	=64	=64	=64	=64
0r	2A	4e]	2e	2cc	0a
.	.	4c	.	.	.
.	2F	2f	2A	1dd	.
.	1A	2e	4c	.	.
.	.	.	4d	.	.
.	.	2c	4e	[2cc	.
.	.	.	4f	.	.
=65	=65	=65	=65	=65	=65
2r	1G	1d	2.g	2cc]	0dd
2G	.	.	.	4b	.
.	.	.	8f	4a	.
.	.	.	8e	.	.
2G	1r	2.g	2d	1b	.
2G	.	.	2B	.	.
.	.	4f	.	.	.
=66	=66	=66	=66	=66	=66
2A	0r	2e	4c	2r	0cc
.	.	.	4B	.	.
2F	.	2f	4A	2a	.
.	.	.	4B	.	.
1A	.	2e	4c	2a	.
.	.	.	4d	.	.
.	.	2c	4e	2a	.
.	.	.	4f	.	.
=67	=67	=67	=67	=67	=67
0G	2r	1d	0g	2b	0b
.	2d	.	.	2g	.
.	2d	1r	.	2.gg	.
.	2d	.	.	.	.
.	.	.	.	4ff	.
=68	=68	=68	=68	=68	=68
1.c	2e	0r	2r	0ee	0cc
.	2c	.	2g	.	.
.	1e	.	2g	.	.
2c	.	.	2g	.	.
=69	=69	=69	=69	=69	=69
0F	1.f	2r	2a	1cc	0r
.	.	2A	2f	.	.
.	.	2A	1a	1r	.
.	2e	2A	.	.	.
=70	=70	=70	=70	=70	=70
0G	0d	2B	2.g	2r	0b
.	.	2G	.	2dd	.
.	.	.	8f	.	.
.	.	.	8e	.	.
.	.	2.g	2d	2dd	.
.	.	.	2g	2dd	.
.	.	4f	.	.	.
=71	=71	=71	=71	=71	=71
0r	2c	2e	2g	2ee	0cc
.	2F	2f	2.a	2cc	.
.	1c	2e	.	1ee	.
.	.	.	4g	.	.
.	.	2c	[2g	.	.
=72	=72	=72	=72	=72	=72
2r	0r	0d	2g]	1.dd	0a
2D	.	.	4f#	.	.
.	.	.	4e	.	.
2D	.	.	1f#	.	.
2D	.	.	.	2dd	.
=73	=73	=73	=73	=73	=73
2E	2r	2G	1g	2b	0g
2C	2G	2c	.	2cc	.
1E	2G	1B	1r	4g	.
.	.	.	.	4a	.
.	2G	.	.	4b	.
.	.	.	.	4cc	.
=74	=74	=74	=74	=74	=74
1D	2A	2r	0r	4dd	0f
.	.	.	.	4ee	.
.	2F	2d	.	2.ff	.
1r	1B-	2d	.	.	.
.	.	.	.	4ee	.
.	.	2d	.	[2dd	.
=75	=75	=75	=75	=75	=75
1r	0A	1e	2r	2dd]	0a
.	.	.	2e	2cc#	.
1D	.	1d	2f	1dd	.
.	.	.	2f	.	.
=76	=76	=76	=76	=76	=76
1A	2r	4c	2e	1ee	0cc
.	.	4d	.	.	.
.	2A	4e	2e	.	.
.	.	4c	.	.	.
1F	2A	2.f	1a	2r	.
.	2A	.	.	2a	.
.	.	4e	.	.	.
=77	=77	=77	=77	=77	=77
1G	2B	4d	0g	1dd	0b
.	.	4c	.	.	.
.	2G	4B	.	.	.
.	.	4A	.	.	.
1G	2.B	2G	.	1dd	.
.	.	[2g	.	.	.
.	4c	.	.	.	.
=78	=78	=78	=78	=78	=78
0D	[0d	2g]	2r	0dd	0a
.	.	4f#	2a	.	.
.	.	4e	.	.	.
.	.	1f#	2a	.	.
.	.	.	2a	.	.
=79	=79	=79	=79	=79	=79
1G	0d]	1.g	1b	2r	[0g
.	.	.	.	2dd	.
1G	.	.	1b	2dd	.
.	.	2f	.	2dd	.
=80	=80	=80	=80	=80	=80
1C	2.c	2.e	0cc	2ee	1g_
.	.	.	.	2cc	.
.	8B	4d	.	.	.
.	8A	.	.	.	.
1C	1G	1c	.	1ee	1g_
=81	=81	=81	=81	=81	=81
0G	0G	0d	0b	0dd	0g]
==	==	==	==	==	==
*-	*-	*-	*-	*-	*-
!!!CDT: 1525/^1526/-1594/2/2
!!!OCY: Italia
!!!AGN: Mass (Tenor)
!!!AST: renaissance, vocal
!!!ASW: Hymn
!!!PWK: Masses, Book 9
!!!RNB: Cadence finals: C,D
!!!YOR: Le Opere Complete, v. 25, p. 246
!!!YOO: Rome, Italy: Fratelli Scalera
!!!END: 1992//
!!!EED: John Miller
!!!YEC: Copyright 2000, John Miller
!!!YEN: United States of America
!!!YEM: Rights to all derivative electronic formats reserved.
!!!YEM: Refer to licensing agreement for further details.
!!!YEM: This file must be accompanied by the licensing agreement.
!!!YEM: A copy of the licensing agreement may be found at http://www.music-cog.ohio-state.edu/HumdrumDatabases/Palestrina/license.txt
!!!EMD: converted to Humdrum by Bret Aarden
